X: 10015
T: Dhow, The
R: hornpipe
M: 4/4
K: Gminor
|:D=E^F|~B3 A ~G3 D|Gd^cd ed=cB|~A3 G ~^F3 E|Dd^cd ed =c/B/A|
B/B/B BA G/G/G GE|Dd ^c/c/d ed=cB|Aedc AD^FA|G/G/G ^FA G:|
|:g^fg|ecGc eg^fg|dBGB dD^FA|^FDFA dcBA|GDGB dg^fg|
ec c/c/c egbg|dB B/B/B dDGD|^FD F/G/A d2 c/B/A|G2 G^F G:|

